Obsidian-SemiLight/actions/24s/filename-group-length.svg

<svg viewBox="0 0 24 24" xmlns="http://www.w3.org/2000/svg"><path d="m5 4v1 13h1 2 1v1 1h5v-1h-4v-11h8v4h1v-4-1h-2v-3h-1-10zm1 1h10v2h-7v1 9h-1-2zm11.5 8a3.5 3.5 0 0 0 -3.5 3.5 3.5 3.5 0 0 0 3.5 3.5 3.5 3.5 0 0 0 3.5-3.5 3.5 3.5 0 0 0 -3.5-3.5zm0 1a2.5 2.5 0 0 1 2.5 2.5 2.5 2.5 0 0 1 -2.5 2.5 2.5 2.5 0 0 1 -2.5-2.5 2.5 2.5 0 0 1 2.5-2.5zm-.5 1v3h1 1v-1h-1v-2z" fill="#4d4d4d"/></svg>

<svg xmlns="http://www.w3.org/2000/svg" viewBox="0 0 24 24">
  <defs id="defs3051">
    <style type="text/css" id="current-color-scheme">
      .ColorScheme-Text {
        color:#4d4d4d;
      }
      </style>
  </defs>
 <path style="fill:currentColor;fill-opacity:1;stroke:none" 
     d="M 5 4 L 5 5 L 5 18 L 6 18 L 8 18 L 9 18 L 9 19 L 9 20 L 14 20 L 14 19 L 10 19 L 10 8 L 18 8 L 18 12 L 19 12 L 19 8 L 19 7 L 17 7 L 17 4 L 16 4 L 6 4 L 5 4 z M 6 5 L 16 5 L 16 7 L 9 7 L 9 8 L 9 17 L 8 17 L 6 17 L 6 5 z M 17.5 13 A 3.5 3.5 0 0 0 14 16.5 A 3.5 3.5 0 0 0 17.5 20 A 3.5 3.5 0 0 0 21 16.5 A 3.5 3.5 0 0 0 17.5 13 z M 17.5 14 A 2.5 2.5 0 0 1 20 16.5 A 2.5 2.5 0 0 1 17.5 19 A 2.5 2.5 0 0 1 15 16.5 A 2.5 2.5 0 0 1 17.5 14 z M 17 15 L 17 18 L 18 18 L 19 18 L 19 17 L 18 17 L 18 15 L 17 15 z "
     class="ColorScheme-Text"
     />
</svg>
